img/icons/svg/viber__icon.svg

<svg width="17" height="17" viewBox="0 0 17 17" fill="none" xmlns="http://www.w3.org/2000/svg">
<g clip-path="url(#clip0)">
<path d="M10.2003 0.000244141H6.79989C3.51859 0.000244141 0.849121 2.66971 0.849121 5.95101V8.50134C0.849121 10.805 2.17771 12.8956 4.24955 13.879V16.719C4.24955 16.9656 4.55804 17.0946 4.73329 16.9194L7.20058 14.4521H10.2003C13.4816 14.4521 16.1511 11.7826 16.1511 8.50134V5.95101C16.1511 2.66971 13.4816 0.000244141 10.2003 0.000244141Z" fill="#665CAC"/>
<path d="M5.09965 13.8789C3.02781 12.8955 1.69922 10.805 1.69922 8.50131V5.95097C1.69922 2.66971 4.36872 0.000244141 7.64998 0.000244141H6.79988C3.51859 0.000244141 0.849121 2.66971 0.849121 5.95101V8.50134C0.849121 10.805 2.17771 12.8956 4.24955 13.879V16.719C4.24955 16.9656 4.55804 17.0946 4.73329 16.9194L5.09965 16.5531V13.8789Z" fill="#523494"/>
<path d="M12.7781 10.5622L12.5233 9.18207C12.5022 9.06805 12.4139 8.97836 12.3002 8.95562L10.2965 8.55489C10.2034 8.53636 10.1075 8.56542 10.0405 8.63239L9.22646 9.44646C7.8549 8.83191 7.09369 8.06903 6.42391 6.63861L7.23533 5.82722C7.3023 5.76022 7.33139 5.66413 7.31283 5.57123L6.9121 3.56748C6.88935 3.45383 6.79967 3.36544 6.68565 3.34439L5.30553 3.08966C5.26775 3.08272 5.22883 3.08345 5.19131 3.09198C4.82691 3.17476 4.49441 3.35837 4.22975 3.6231C3.77148 4.08137 3.59634 4.75008 3.7233 5.55695C3.93643 6.91184 4.60023 8.79737 5.82493 10.027L5.84166 10.0436C7.07031 11.2674 8.95588 11.9313 10.3108 12.1444C10.4815 12.1713 10.6459 12.1847 10.8036 12.1847C11.3911 12.1847 11.8833 11.9993 12.2448 11.638C12.5094 11.3733 12.6931 11.0408 12.7758 10.6764C12.7842 10.6389 12.785 10.6 12.7781 10.5622Z" fill="white"/>
<path d="M6.95853 6.10404L7.23558 5.82696L7.23588 5.82666L6.9585 6.10401L6.95853 6.10404Z" fill="#E5E5E5"/>
<path d="M10.0405 8.63186L9.76074 8.91162L9.76079 8.91167L10.0406 8.63191L10.0405 8.63186Z" fill="#E5E5E5"/>
<path d="M11.3379 11.6501C11.1803 11.6501 11.0159 11.6368 10.8452 11.6099C9.49029 11.3967 7.60472 10.7329 6.37603 9.50904L6.3593 9.49243C5.1346 8.26282 4.47081 6.37728 4.25767 5.0224C4.15511 4.37052 4.24994 3.80889 4.5318 3.37549C4.42386 3.44751 4.32255 3.53012 4.22975 3.62292C3.77148 4.08119 3.59634 4.7499 3.7233 5.55677C3.93643 6.91165 4.60023 8.79719 5.82493 10.0268L5.84166 10.0434C7.07031 11.2672 8.95588 11.9311 10.3108 12.1443C10.4815 12.1712 10.6459 12.1845 10.8036 12.1845C11.3911 12.1845 11.8833 11.9992 12.2448 11.6378C12.3375 11.545 12.4201 11.4437 12.4921 11.3358C12.1722 11.5439 11.7824 11.6501 11.3379 11.6501Z" fill="#E5E5E5"/>
<path d="M9.06656 4.81763C8.91007 4.81763 8.7832 4.9445 8.7832 5.10098C8.7832 5.25747 8.91007 5.38434 9.06656 5.38434C9.69157 5.38434 10.2 5.89281 10.2 6.51783C10.2 6.67222 10.329 6.80118 10.4834 6.80118C10.6378 6.80118 10.7668 6.67222 10.7668 6.51783C10.7668 5.5803 10.0041 4.81763 9.06656 4.81763Z" fill="white"/>
<path d="M9.06678 3.68408C8.96196 3.68408 8.85618 3.68989 8.75232 3.70135C8.59676 3.71851 8.48457 3.85853 8.50173 4.01412C8.5189 4.16971 8.65922 4.28161 8.81451 4.26471C8.89778 4.25551 8.98265 4.25083 9.06678 4.25083C10.3168 4.25083 11.3337 5.26777 11.3337 6.51777C11.3337 6.60194 11.329 6.68681 11.3198 6.77008C11.3029 6.92351 11.4169 7.06595 11.5704 7.08285C11.7239 7.09975 11.8662 6.98577 11.8832 6.83227C11.8947 6.72841 11.9005 6.62263 11.9005 6.51777C11.9005 4.9553 10.6293 3.68408 9.06678 3.68408Z" fill="white"/>
<path d="M9.06726 2.55078C8.96599 2.55078 8.86343 2.55463 8.76249 2.5623C8.60643 2.57412 8.48949 2.71026 8.50131 2.86628C8.5131 3.02233 8.6497 3.13927 8.80529 3.12745C8.89205 3.12085 8.9802 3.11753 9.06726 3.11753C10.9423 3.11753 12.4677 4.64294 12.4677 6.51796C12.4677 6.78325 12.4371 7.04735 12.3767 7.30288C12.3421 7.44931 12.4323 7.60151 12.5775 7.64128C12.7302 7.68312 12.8919 7.58733 12.9283 7.43323C12.9987 7.13504 13.0344 6.82711 13.0344 6.51796C13.0344 4.33044 11.2548 2.55078 9.06726 2.55078Z" fill="white"/>
</g>
<defs>
<clipPath id="clip0">
<rect width="17" height="17" fill="white" transform="translate(0 0.000244141)"/>
</clipPath>
</defs>
</svg>

<svg width="17" height="17" viewBox="0 0 17 17" fill="none" xmlns="http://www.w3.org/2000/svg"><g clip-path="url(#clip0)"><path d="M10.2 0H6.8A5.957 5.957 0 00.85 5.951v2.55a5.953 5.953 0 003.4 5.378v2.84c0 .247.308.376.483.2l2.468-2.467h3c3.28 0 5.95-2.67 5.95-5.95V5.95c0-3.281-2.67-5.95-5.95-5.95z" fill="#665CAC"/><path d="M5.1 13.879A5.953 5.953 0 011.7 8.5V5.95A5.956 5.956 0 017.65.001H6.8A5.957 5.957 0 00.85 5.95V8.5a5.953 5.953 0 003.4 5.378v2.84c0 .247.308.376.483.2l.367-.366V13.88z" fill="#523494"/><path d="M12.778 10.562l-.255-1.38a.283.283 0 00-.223-.226l-2.004-.401a.284.284 0 00-.255.077l-.815.814C7.855 8.832 7.094 8.07 6.424 6.64l.811-.812a.284.284 0 00.078-.256l-.4-2.004a.283.283 0 00-.227-.223l-1.38-.254a.284.284 0 00-.115.002 1.977 1.977 0 00-.961.531c-.459.458-.634 1.127-.507 1.934.213 1.355.877 3.24 2.102 4.47l.017.017c1.228 1.223 3.114 1.887 4.469 2.1.17.027.335.04.493.04.587 0 1.08-.185 1.44-.546a1.97 1.97 0 00.532-.962.287.287 0 00.002-.114z" fill="#fff"/><path d="M6.959 6.104l.277-.277-.277.277zm3.081 2.528l-.28.28.28-.28zm1.298 3.018c-.158 0-.322-.013-.493-.04-1.355-.213-3.24-.877-4.469-2.101l-.017-.017c-1.224-1.23-1.888-3.115-2.101-4.47-.103-.651-.008-1.213.274-1.647-.108.073-.21.155-.302.248-.459.458-.634 1.127-.507 1.934.213 1.355.877 3.24 2.102 4.47l.017.016c1.228 1.224 3.114 1.888 4.469 2.101.17.027.335.04.493.04.587 0 1.08-.185 1.44-.546a1.99 1.99 0 00.248-.302c-.32.208-.71.314-1.154.314z" fill="#E5E5E5"/><path d="M9.067 4.818a.283.283 0 000 .566c.625 0 1.133.509 1.133 1.134 0 .154.129.283.283.283a.286.286 0 00.284-.283c0-.938-.763-1.7-1.7-1.7z" fill="#fff"/><path d="M9.067 3.684c-.105 0-.21.006-.315.017a.283.283 0 10.063.564A2.27 2.27 0 0111.32 6.77a.286.286 0 00.25.313.286.286 0 00.313-.25 2.837 2.837 0 00-2.816-3.148z" fill="#fff"/><path d="M9.067 2.55a4.04 4.04 0 00-.305.012.283.283 0 00.043.565 3.404 3.404 0 013.571 4.175.286.286 0 00.201.34.286.286 0 00.351-.209 3.972 3.972 0 00-3.861-4.882z" fill="#fff"/></g><defs><clipPath id="clip0"><path fill="#fff" d="M0 0h17v17H0z"/></clipPath></defs></svg>
